X: 379
T:Textless Piece 3
N: Derived from Jos2838-Textless_piece_3.krn
C: Josquin des Prez
%%abc-version 2.0
%%abcx-abcm2ps-target-version 5.9.1 (29 Sep 2008)
%%abc-creator hum2abc beta
%%abcx-conversion-date 2019/02/12 16:15:55
%%abc-edited-by Jesse Rodin
%%abc-edited-by Jesse Rodin; Victoria Chang 2011/10/21
%%abcx-initial-encoding-date 2011/10/21/
%%humdrum-veritas 1825299748
%%humdrum-veritas-data 5994027
%%linebreak <none>
%%barnumbers 0
L: 1/4
M: 2/1
Q: 1/2=120
%%staves [1 2 3 4]
V: 1 clef=treble
V: 2 clef=treble-8
V: 3 clef=treble-8
V: 4 clef=bass
K: C
[V:1] z8 | 
[V:2] z8 | 
[V:3] z8 | 
[V:4] z2A,,2A,,2A,,2 | 
[V:1] z8 | 
[V:2] z4z2A2 | 
[V:3] z8 | 
[V:4] C,2C,2D,2F,2- | 
[V:1] z8 | 
[V:2] A2A2c2c2 | 
[V:3] z8 | 
[V:4] F,2E,D,E,4 | 
[V:1] z8 | 
[V:2] d2f4ed | 
[V:3] z2A2A2A2 | 
[V:4] D,6C,B,, | 
[V:1] z4z2A2 | 
[V:2] e4d4- | 
[V:3] c2c2d2f2- | 
[V:4] A,,4z4 | 
[V:1] A2A2c2c2 | 
[V:2] d2cBA2a2 | 
[V:3] f2ede4 | 
[V:4] z2A,2A,2A,2 | 
[V:1] d4c2B2- | 
[V:2] a2a2a2f2 | 
[V:3] d2f2e2d2- | 
[V:4] D,2D,2A,2B,2 | 
[V:1] BAA4^G2 | 
[V:2] gfede4 | 
[V:3] dcBAB4 | 
[V:4] G,2A,2E,4 | 
[V:1] A8 | 
[V:2] c4z2f2- | 
[V:3] A4z2d2 | 
[V:4] F,3E,D,C,D,2- | 
[V:1] z2A2A2A2 | 
[V:2] f2ede4 | 
[V:3] d2d2c3d | 
[V:4] D,2C,B,,A,,4 | 
[V:1] G2A3GFE | 
[V:2] e2d4c2 | 
[V:3] e2f3ee2- | 
[V:4] z8 | 
[V:1] F2EDC4 | 
[V:2] d4A4 | 
[V:3] e2d2e4 | 
[V:4] z4z2A,2 | 
[V:1] z2c2B2c2 | 
[V:2] z4z2e2 | 
[V:3] z2e2e2e2 | 
[V:4] A,2A,2G,2A,2- | 
[V:1] A2c3BA2- | 
[V:2] e2e2c2d2 | 
[V:3] cBAGA4 | 
[V:4] A,G,F,E,F,4 | 
[V:1] A2^G2A4 | 
[V:2] e4c4- | 
[V:3] B4A4 | 
[V:4] E,4z2A,2 | 
[V:1] z2c2B2c2 | 
[V:2] c4z2e2 | 
[V:3] z2e2e2e2 | 
[V:4] A,2A,2G,2A,2- | 
[V:1] A2c3BA2- | 
[V:2] e2e2c2d2 | 
[V:3] cBAGA4 | 
[V:4] A,G,F,E,F,4 | 
[V:1] A2^G2A4 | 
[V:2] e8 | 
[V:3] B4A2c2 | 
[V:4] E,4z2A,2 | 
[V:1] z2E2F2E2 | 
[V:2] z2c2d2e2 | 
[V:3] d2e2z2c2 | 
[V:4] _B,2A,2z2A,2 | 
[V:1] z2E2F2E2 | 
[V:2] z2c2d2e2 | 
[V:3] d2e2z2c2 | 
[V:4] _B,2A,2z2A,2 | 
[V:1] z2E2F2E2 | 
[V:2] z2c2d2e2 | 
[V:3] d2e2z2c2 | 
[V:4] _B,2A,2z2A,,2 | 
[V:1] F2E3DF2- | 
[V:2] A4G2F2 | 
[V:3] d2c3BA2- | 
[V:4] D,2A,,2C,2D,2 | 
[V:1] FED4^C2 | 
[V:2] D4E4 | 
[V:3] A2^G2A4- | 
[V:4] B,,4A,,4 | 
[V:1] D4z2F2 | 
[V:2] D4z4 | 
[V:3] A2GFG2A2 | 
[V:4] z2F,2E,2D,2 | 
[V:1] E2D2C2D2 | 
[V:2] z2A2G2A2 | 
[V:3] z2F2E2D2 | 
[V:4] C,2D,2z2F,2 | 
[V:1] z2F2E2D2 | 
[V:2] A3Bc2A2 | 
[V:3] C2D2z2F2 | 
[V:4] E,2D,2C,2D,2 | 
[V:1] C2D2z2C2 | 
[V:2] G2A2D2E2 | 
[V:3] E2F2G2A2 | 
[V:4] z2D,2_B,,2A,,2 | 
[V:1] D2E2F4- | 
[V:2] F2G2D4 | 
[V:3] B2c2d4 | 
[V:4] D,2C,2_B,,4 | 
[V:1] F2EDE4- | 
[V:2] A8 | 
[V:3] c8 | 
[V:4] z2A,,2A,,2A,,2 | 
[V:1] E4z4 | 
[V:2] z2A2A2A2 | 
[V:3] z8 | 
[V:4] C,2C,2D,E,F,D, | 
[V:1] z8 | 
[V:2] c2c2d2f2- | 
[V:3] z4z2A2 | 
[V:4] E,4D,4- | 
[V:1] z4z2A2 | 
[V:2] f2ede4 | 
[V:3] A2A2c2c2 | 
[V:4] D,2C,B,,A,,4 | 
[V:1] A2A2c2c2 | 
[V:2] z4z2a2 | 
[V:3] defde4 | 
[V:4] z2A,2A,2A,2 | 
[V:1] d4c2B2- | 
[V:2] a2a2a2f2 | 
[V:3] d2f2e2d2- | 
[V:4] D,2D,2A,2B,2 | 
[V:1] BAA4^G2 | 
[V:2] g2e2e2e2 | 
[V:3] dcBAB4 | 
[V:4] G,2A,2E,4 | 
[V:1] A8 | 
[V:2] c2c2d2f2- | 
[V:3] A4z2d2 | 
[V:4] F,3E,D,C,D,2- | 
[V:1] z2A2A2A2 | 
[V:2] f2ede4 | 
[V:3] d2d2c2BA | 
[V:4] D,2C,B,,A,,4 | 
[V:1] G2G2A3G/F/ | 
[V:2] E4F3G | 
[V:3] B4A2c2- | 
[V:4] z8 | 
[V:1] E4z4 | 
[V:2] ABc4BA | 
[V:3] cBAGF4 | 
[V:4] z2A,2A,2A,2 | 
[V:1] z2E3DE2- | 
[V:2] B4A2c2- | 
[V:3] E4z2E2 | 
[V:4] G,2G,2A,2A,,2 | 
[V:1] E2DCD4 | 
[V:2] cBA4^G2 | 
[V:3] E2F2D4 | 
[V:4] A,,2A,,2B,,4 | 
[V:1] C4z4 | 
[V:2] A2c2c2c2 | 
[V:3] E4E3F | 
[V:4] A,,8 | 
[V:1] z2E2D2E2 | 
[V:2] B3cd2A2 | 
[V:3] G2A2B2c2 | 
[V:4] z4z2A,,2 | 
[V:1] D2E4DC | 
[V:2] z4z2e2 | 
[V:3] B2c3BA2- | 
[V:4] B,,2A,,2C,3D, | 
[V:1] B,4z2A,2- | 
[V:2] e2e2c3d | 
[V:3] A2^G2A=GAB | 
[V:4] E,4A,,4 | 
[V:1] A,G,A,B,CB,CD | 
[V:2] e4A4 | 
[V:3] cBcde2c2 | 
[V:4] z2A,,3G,,A,,B,, | 
[V:1] EDEFGFGA | 
[V:2] z8 | 
[V:3] c2c2B2e2 | 
[V:4] C,B,,C,D,E,D,E,F, | 
[V:1] BcA4^G2 | 
[V:2] z2e2e2e2 | 
[V:3] dcBAB4 | 
[V:4] G,2A,2E,4 | 
[V:1] A8 |]  
[V:2] c3de4 |]  
[V:3] A8 |]  
[V:4] A,,8 |]  



